X:1
T:As-Tu Connu le Per Lanc'lot
M:6/8
L:1/8
K:C
 FFF F2 A| A2 G E2 G| G F3/2- E/2 F2 A| A G3/2- ^F/2 G3| ECE G2 G|\
 A2 B G2 c| B2 G A2 ^F|G-B-A G3|
